!!!OTL: Meili yucun haofengguang
!!!ARE: Asia, China,ˇGuangdong Lingao
!! II, 359
!!!SCT: C1890
!!!YEM: Copyright 1995, estate of Helmut Schaffrath.
**kern
*ICvox
*Ivox
*M2/4
*k[f#c#g#]
*A:
{8aa
8bb
8ccc#
8ff#
=1
8aa
4bb
8ccc#
=2
8bb
16ccc#
16bb
8aa
8bb
=3
2ccc#}
=4
{4.bb
16aa
16ff#
=5
4.aa
16bb
16ccc#
=6
8aa
8bb
8ccc#
8aa
=7
4.bb
16aa
16bb
=8
4.ccc#
8r}
=9
{8ff#
8ff#
8aa
8bb
=10
8.ccc#
16ddd
16ccc#
16bb
16aa
16bb
=11
4.ccc#
16bb
16ccc#
=12
4aa
16aa
16bb
16ccc#
16aa
=13
4.bb
8r}
=14
{8bb
16aa
16bb
16ccc#
16ddd
16ccc#
16bb
=15
4.aa
8bb
=16
16ccc#
16ddd
16ccc#
16bb
16aa
16bb
8ccc#
=17
4.bb
8ccc#
=18
4bb
4r}
=19
{8ccc#
24bb
24aa
24bb
8ccc#
16bb
16ccc#
=20
8aa
4bb
16ccc#
16ddd
=21
4.ccc#
16bb
16ccc#
=22
8aa
16bb
16ccc#
8ff#
8aa
=23
2bb}
=24
{8bb
16aa
16bb
16ccc#
16bb
16aa
16ff#
=25
8ff#
16ff#
16aa
16bb
16ccc#
16aa
16ff#
=26
4.ff#
8aa
=27
4bb
8aa
8ff#
=28
4ff#
4r}
=29
{8ff#
16ff#
16aa
16bb
16ccc#
8aa
=30
[4bb
8.bb]
16ff#
=31
8bb
16aa
16bb
16ccc#
16bb
16aa
16ff#
=32
[4ff#
8.ff#]
16aa}
=33
{8bb
16ccc#
16bb
16aa
16bb
16ccc#
16bb
=34
4.aa
16bb
16ccc#
=35
4aa
4r}
=36
{8ff#
16ff#
16aa
16bb
16ccc#
8aa
=37
4bb
8bb
24ccc#
24bb
24ccc#
=38
4.aa
16bb
16ccc#
=39
8aa
16bb
16ccc#
8ff#
8aa
=40
4.bb
8r}
=41
{8bb
16aa
16bb
8ccc#
8ff#
=42
4.aa
8ccc#
=43
4aa
4r}
=44
{8ccc#
16aa
16bb
8ccc#
16bb
16ccc#
=45
4.bb
16ccc#
16aa
=46
8bb
16ccc#
16aa
8bb
8bb
=47
2ccc#}
=48
{4bb
8aa
8ff#
=49
8aa
8bb
8ccc#
16bb
16ccc#
=50
4.bb
16aa
16bb
=51
4ccc#
4r}
=52
{8ff#
8ff#
16aa
16bb
16ccc#
16bb
=53
4ccc#
16bb
16ccc#
16aa
16bb
=54
4.ccc#
16bb
16ccc#
=55
8.aa
16bb
8aa
16bb
16aa
=56
2bb}
=57
{8bb
16aa
16bb
16ccc#
16ddd
16ccc#
16bb
=58
[4aa
8.aa]
16bb
=59
16ccc#
16ddd
16ccc#
16bb
16aa
16bb
8ccc#
=60
4.bb
8ccc#
=61
4bb
4r}
==
!!!AGN: Shange, YÅge, Lilimei diao
!!!AMT: simple duple
!!!AIN: vox
!!!EED: Helmut Schaffrath
!!!EEV: 1.0
*-
